X:1
T:Missa Do si la fa sol la - Kyrie
T:Missa Do si la fa sol la - Kyrie
T:André Vierendeels (31/01/11)
C:André Vierendeels
C:(31/01/11)
%%score [ 1 2 3 4 ]
L:1/8
Q:1/4=120
M:2/2
K:F
V:1 treble nm="Soprano" snm="S"
V:2 treble nm="Alto" snm="A"
V:3 treble-8 nm="Tenor" snm="T"
V:4 bass nm="Bass" snm="B"
V:1
 c3 B A2 F2 | G3 A A4 | z8 | z8 | c3 B A2 F2 | G2 AB A4 | c4 B4 | A4 F4 | G2 F2 A4 | c3 B A2 F2 | %10
w: Ky- ri- e, e-|le- i- son,|||Ky- ri- e, e-|le- i- * son,|Chri- ste|e- le-|i- * son,|Ky- ri- e, e-|
 G3 A A4 | c3 B A2 F2 | G4 A2 c2 | B8 | A8 |] %15
w: le- i- son,|Ky- ri- e, e-|le- * *|i-|son.|
V:2
 C3 D F2 D2 | C3 F D4 | z8 | z8 | C3 D F2 D2 | C2 FC F4 | C4 D4 | F4 D4 | C2 CD F4 | C3 D F2 D2 | %10
w: Ky- ri- e, e-|le- i- son,|||Ky- ri- e, e-|le- i- * son,|Chri- ste|e- le-|i- * * son,|Ky- ri e, e-|
 C3 F D4 | C3 D F2 D2 | E4 F4- | F4 G4 | F8 |] %15
w: le- i- son,|Ky- ri- e, e-|le- *|* i-|son.|
V:3
 z8 | z8 | c3 B A2 F2 | G3 A A4 | c3 d A2 A2 | G2 FG A4 | A4 d4 | c4 d4 | e2 cB A4 | z8 | z8 | %11
w: ||Ky- ri- e, e-|le- i- son,|Ky- ri- e, e-|le- i- * son,|Chri- ste|e- le-|i- * * son,|||
 c3 d A2 A2 | G4 c4 | d8 | A8 |] %15
w: Ky- ri- e, e-|le- *|i-|son.|
V:4
 z8 | z8 | C,3 D, F,2 D,2 | C,3 F, D,4 | C,3 B,, D,2 D,2 | E,2 D,E, D,4 | F,4 G,4 | A,4 D,4 | %8
w: ||Ky- ri- e, e-|le- i- son,|Ky- ri- e, e-|le- i- * son,|Chri- ste|e- le-|
 C,2 F,B,, D,4 | z8 | z8 | C,3 B,, D,2 D,2 | C,2 E,2 F,2 A,2 | B,4 G,4 | D,8 |] %15
w: i- * * son,|||Ky- ri- e, e-|le- * * *|* i-|son.|

